svg/lock_alert.svg

<svg xmlns="http://www.w3.org/2000/svg" viewBox="0 0 24 24"><path d="M10 17c1.1 0 2-.9 2-2s-.9-2-2-2-2 .9-2 2 .9 2 2 2m6-9c1.1 0 2 .9 2 2v10c0 1.1-.9 2-2 2H4c-1.1 0-2-.9-2-2V10c0-1.1.9-2 2-2h1V6c0-2.8 2.2-5 5-5s5 2.2 5 5v2zm-6-5C8.3 3 7 4.3 7 6v2h6V6c0-1.7-1.3-3-3-3m12 10h-2V7h2zm0 4h-2v-2h2z"/></svg>

<?xml version="1.0" encoding="UTF-8"?><!DOCTYPE svg PUBLIC "-//W3C//DTD SVG 1.1//EN" "http://www.w3.org/Graphics/SVG/1.1/DTD/svg11.dtd"><svg xmlns="http://www.w3.org/2000/svg" xmlns:xlink="http://www.w3.org/1999/xlink" version="1.1" id="mdi-lock-alert" width="24" height="24" viewBox="0 0 24 24"><path d="M10 17C11.1 17 12 16.1 12 15C12 13.9 11.1 13 10 13C8.9 13 8 13.9 8 15S8.9 17 10 17M16 8C17.1 8 18 8.9 18 10V20C18 21.1 17.1 22 16 22H4C2.9 22 2 21.1 2 20V10C2 8.9 2.9 8 4 8H5V6C5 3.2 7.2 1 10 1S15 3.2 15 6V8H16M10 3C8.3 3 7 4.3 7 6V8H13V6C13 4.3 11.7 3 10 3M22 13H20V7H22V13M22 17H20V15H22V17Z" /></svg>
